src/assets/duotone/MoneyRecive.svg

<svg width="24" height="24" viewBox="0 0 24 24"  xmlns="http://www.w3.org/2000/svg">
<path opacity="0.4" d="M18.8101 6.24998H20.1701C19.9801 5.97998 19.7801 5.72998 19.5701 5.47998L18.8101 6.24998Z" />
<path opacity="0.4" d="M18.52 4.42001C18.27 4.21001 18.02 4.01001 17.75 3.82001V5.18001L18.52 4.42001Z" />
<path opacity="0.4" d="M17 7.75C16.9 7.75 16.81 7.73 16.71 7.69C16.53 7.61 16.38 7.47 16.3 7.28C16.26 7.19 16.24 7.09 16.24 6.99V2.99C16.24 2.98 16.25 2.97 16.25 2.95C14.96 2.35 13.52 2 12 2C6.48 2 2 6.48 2 12C2 17.52 6.48 22 12 22C17.52 22 22 17.52 22 12C22 10.48 21.65 9.04 21.04 7.74C21.03 7.74 21.02 7.75 21 7.75H17Z" />
<path d="M19.58 5.48L22.53 2.53C22.82 2.24 22.82 1.76 22.53 1.47C22.24 1.18 21.76 1.18 21.47 1.47L18.52 4.42C18.9 4.75 19.25 5.11 19.58 5.48Z" />
<path d="M17.7498 3C17.7498 2.59 17.4098 2.25 16.9998 2.25C16.5998 2.25 16.2798 2.57 16.2598 2.96C16.7798 3.21 17.2798 3.49 17.7498 3.82V3Z" />
<path d="M21.7499 7C21.7499 6.59 21.4099 6.25 20.9999 6.25H20.1699C20.4999 6.72 20.7899 7.22 21.0299 7.74C21.4299 7.72 21.7499 7.4 21.7499 7Z" />
<path d="M13.75 11.82L12.75 11.47V9.25H12.83C13.34 9.25 13.75 9.7 13.75 10.25C13.75 10.66 14.09 11 14.5 11C14.91 11 15.25 10.66 15.25 10.25C15.25 8.87 14.17 7.75 12.83 7.75H12.75V7.5C12.75 7.09 12.41 6.75 12 6.75C11.59 6.75 11.25 7.09 11.25 7.5V7.75H10.95C9.74001 7.75 8.75 8.77 8.75 10.03C8.75 11.49 9.6 11.96 10.25 12.19L11.25 12.54V14.76H11.17C10.66 14.76 10.25 14.31 10.25 13.76C10.25 13.35 9.91 13.01 9.5 13.01C9.09 13.01 8.75 13.35 8.75 13.76C8.75 15.14 9.83001 16.26 11.17 16.26H11.25V16.51C11.25 16.92 11.59 17.26 12 17.26C12.41 17.26 12.75 16.92 12.75 16.51V16.26H13.05C14.26 16.26 15.25 15.24 15.25 13.98C15.25 12.51 14.4 12.04 13.75 11.82ZM10.74 10.76C10.4 10.64 10.25 10.57 10.25 10.02C10.25 9.59 10.57 9.24 10.95 9.24H11.25V10.93L10.74 10.76ZM13.05 14.75H12.75V13.06L13.26 13.24C13.6 13.36 13.75 13.43 13.75 13.98C13.75 14.4 13.43 14.75 13.05 14.75Z" />
</svg>

<?xml version="1.0" encoding="UTF-8"?>
<svg width="24" height="24" viewBox="0 0 24 24" xmlns="http://www.w3.org/2000/svg">
 <path d="m18.81 6.25h1.36c-0.19-0.27-0.39-0.52-0.6-0.77l-0.76 0.77z" opacity=".4"/>
 <path d="m18.52 4.42c-0.25-0.21-0.5-0.41-0.77-0.6v1.36l0.77-0.76z" opacity=".4"/>
 <path d="m17 7.75c-0.1 0-0.19-0.02-0.29-0.06-0.18-0.08-0.33-0.22-0.41-0.41-0.04-0.09-0.06-0.19-0.06-0.29v-4c0-0.01 0.01-0.02 0.01-0.04-1.29-0.6-2.73-0.95-4.25-0.95-5.52 0-10 4.48-10 10s4.48 10 10 10 10-4.48 10-10c0-1.52-0.35-2.96-0.96-4.26-0.01 0-0.02 0.01-0.04 0.01h-4z" opacity=".4"/>
 <path d="m19.58 5.48 2.95-2.95c0.29-0.29 0.29-0.77 0-1.06s-0.77-0.29-1.06 0l-2.95 2.95c0.38 0.33 0.73 0.69 1.06 1.06z"/>
 <path d="m17.75 3c0-0.41-0.34-0.75-0.75-0.75-0.4 0-0.72 0.32-0.74 0.71 0.52 0.25 1.02 0.53 1.49 0.86v-0.82z"/>
 <path d="m21.75 7c0-0.41-0.34-0.75-0.75-0.75h-0.83c0.33 0.47 0.62 0.97 0.86 1.49 0.4-0.02 0.72-0.34 0.72-0.74z"/>
 <path d="m13.75 11.82-1-0.35v-2.22h0.08c0.51 0 0.92 0.45 0.92 1 0 0.41 0.34 0.75 0.75 0.75s0.75-0.34 0.75-0.75c0-1.38-1.08-2.5-2.42-2.5h-0.08v-0.25c0-0.41-0.34-0.75-0.75-0.75s-0.75 0.34-0.75 0.75v0.25h-0.3c-1.21 0-2.2 1.02-2.2 2.28 0 1.46 0.85 1.93 1.5 2.16l1 0.35v2.22h-0.08c-0.51 0-0.92-0.45-0.92-1 0-0.41-0.34-0.75-0.75-0.75s-0.75 0.34-0.75 0.75c0 1.38 1.08 2.5 2.42 2.5h0.08v0.25c0 0.41 0.34 0.75 0.75 0.75s0.75-0.34 0.75-0.75v-0.25h0.3c1.21 0 2.2-1.02 2.2-2.28 0-1.47-0.85-1.94-1.5-2.16zm-3.01-1.06c-0.34-0.12-0.49-0.19-0.49-0.74 0-0.43 0.32-0.78 0.7-0.78h0.3v1.69l-0.51-0.17zm2.31 3.99h-0.3v-1.69l0.51 0.18c0.34 0.12 0.49 0.19 0.49 0.74 0 0.42-0.32 0.77-0.7 0.77z"/>
</svg>
